polaris-icons/icons/new-icons/ColorsMajor.svg

<svg width="20" height="20" viewBox="0 0 20 20" fill="none" xmlns="http://www.w3.org/2000/svg">
<path d="M11 6.5C11 7.05228 10.5523 7.5 10 7.5C9.44772 7.5 9 7.05228 9 6.5C9 5.94772 9.44772 5.5 10 5.5C10.5523 5.5 11 5.94772 11 6.5Z" fill="#4A4A4A"/>
<path d="M7 9C7.55228 9 8 8.55228 8 8C8 7.44772 7.55228 7 7 7C6.44772 7 6 7.44772 6 8C6 8.55228 6.44772 9 7 9Z" fill="#4A4A4A"/>
<path d="M8 11.5C8 12.0523 7.55228 12.5 7 12.5C6.44772 12.5 6 12.0523 6 11.5C6 10.9477 6.44772 10.5 7 10.5C7.55228 10.5 8 10.9477 8 11.5Z" fill="#4A4A4A"/>
<path d="M13 9C13.5523 9 14 8.55228 14 8C14 7.44772 13.5523 7 13 7C12.4477 7 12 7.44772 12 8C12 8.55228 12.4477 9 13 9Z" fill="#4A4A4A"/>
<path fill-rule="evenodd" clip-rule="evenodd" d="M10 3C6.13401 3 3 6.13401 3 10C3 13.866 6.13401 17 10 17C10.9665 17 11.75 16.2165 11.75 15.25V13.75C11.75 12.6454 12.6454 11.75 13.75 11.75H15.25C16.2165 11.75 17 10.9665 17 10C17 6.13401 13.866 3 10 3ZM13.75 10.25H15.25C15.3881 10.25 15.5 10.1381 15.5 10C15.5 6.96243 13.0376 4.5 10 4.5C6.96243 4.5 4.5 6.96243 4.5 10C4.5 13.0376 6.96243 15.5 10 15.5C10.1381 15.5 10.25 15.3881 10.25 15.25V13.75C10.25 11.817 11.817 10.25 13.75 10.25Z" fill="#4A4A4A"/>
</svg>

<svg viewBox="0 0 20 20" xmlns="http://www.w3.org/2000/svg"><path d="M11 6.5a1 1 0 1 1-2 0 1 1 0 0 1 2 0Z" fill="#5C5F62"/><path d="M7 9a1 1 0 1 0 0-2 1 1 0 0 0 0 2Z" fill="#5C5F62"/><path d="M8 11.5a1 1 0 1 1-2 0 1 1 0 0 1 2 0Z" fill="#5C5F62"/><path d="M13 9a1 1 0 1 0 0-2 1 1 0 0 0 0 2Z" fill="#5C5F62"/><path fill-rule="evenodd" d="M10 3a7 7 0 0 0 0 14 1.75 1.75 0 0 0 1.75-1.75v-1.5a2 2 0 0 1 2-2h1.5a1.75 1.75 0 0 0 1.75-1.75 7 7 0 0 0-7-7Zm3.75 7.25h1.5a.25.25 0 0 0 .25-.25 5.5 5.5 0 1 0-5.5 5.5.25.25 0 0 0 .25-.25v-1.5a3.5 3.5 0 0 1 3.5-3.5Z" fill="#5C5F62"/></svg>
